X: 578
T: Fortune
B: jims roots
M:C|
L:1/8
Q: 1/4=100
K:D
V:1 
%Kuntz " Ragged but Right
(a2|"D"a)bag fede|"A"[Af]e "D"c2 [df] (a2|a)bag fe d2|"A"A3B A2 (a2|
"D"a)bag fe d2|"G"gfga b2 fg|"D"aa a2 "A"gf e2|"D"d3e d2:|
|:de|"D"[df][df][df][df] [d2f2][d2f2]|"A"[de]d B "D"[d2e2]|[df][df][df][df]  ed B2|"A"A3B A2 [A2e2]|
"D"[df][df][df][df] [d2f2][d2f2]|"G"[d2g2] [dg][dg] [d2g2] [dg][dg]|"D"edcB "A"A2c2|"D"[d3f3] [de] [d2f2]:|
% abcbook-tune_id 6298c25d0944794eb32e70cb


% abcbook-boost 0
% abcbook-tablature 
% abcbook-transpose 
% abcbook-lastupdated 1654178398092
% abcbook-soundfonts 
% abcbook-repeats 1


